; G-Code generated by Simplify3D(R) Version 4.1.2
; Oct 5, 2020 at 8:39:24 PM
; Settings Summary
;   processName,Process1
;   applyToModels,corps_bas
;   profileName,Creality CR-10 (modified)
;   profileVersion,2018-01-19 08:00:00
;   baseProfile,
;   printMaterial,PLA
;   printQuality,Medium
;   printExtruders,
;   extruderName,Primary Extruder
;   extruderToolheadNumber,0
;   extruderDiameter,0.4
;   extruderAutoWidth,0
;   extruderWidth,0.48
;   extrusionMultiplier,0.9
;   extruderUseRetract,1
;   extruderRetractionDistance,5
;   extruderExtraRestartDistance,0
;   extruderRetractionZLift,0
;   extruderRetractionSpeed,1800
;   extruderUseCoasting,0
;   extruderCoastingDistance,0.2
;   extruderUseWipe,0
;   extruderWipeDistance,5
;   primaryExtruder,0
;   layerHeight,0.2
;   topSolidLayers,3
;   bottomSolidLayers,3
;   perimeterOutlines,3
;   printPerimetersInsideOut,1
;   startPointOption,2
;   startPointOriginX,0
;   startPointOriginY,0
;   sequentialIslands,0
;   spiralVaseMode,0
;   firstLayerHeightPercentage,120
;   firstLayerWidthPercentage,150
;   firstLayerUnderspeed,0.5
;   useRaft,1
;   raftExtruder,0
;   raftTopLayers,2
;   raftBaseLayers,2
;   raftOffset,2
;   raftSeparationDistance,0.2
;   raftTopInfill,100
;   aboveRaftSpeedMultiplier,0.6
;   useSkirt,1
;   skirtExtruder,0
;   skirtLayers,1
;   skirtOutlines,2
;   skirtOffset,4
;   usePrimePillar,0
;   primePillarExtruder,999
;   primePillarWidth,12
;   primePillarLocation,7
;   primePillarSpeedMultiplier,1
;   useOozeShield,0
;   oozeShieldExtruder,999
;   oozeShieldOffset,2
;   oozeShieldOutlines,1
;   oozeShieldSidewallShape,1
;   oozeShieldSidewallAngle,30
;   oozeShieldSpeedMultiplier,1
;   infillExtruder,0
;   internalInfillPattern,Fast Honeycomb
;   externalInfillPattern,Rectilinear
;   infillPercentage,20
;   outlineOverlapPercentage,15
;   infillExtrusionWidthPercentage,100
;   minInfillLength,5
;   infillLayerInterval,1
;   internalInfillAngles,0
;   overlapInternalInfillAngles,0
;   externalInfillAngles,45,-45
;   generateSupport,0
;   supportExtruder,0
;   supportInfillPercentage,30
;   supportExtraInflation,0
;   supportBaseLayers,0
;   denseSupportExtruder,0
;   denseSupportLayers,0
;   denseSupportInfillPercentage,70
;   supportLayerInterval,1
;   supportHorizontalPartOffset,0.3
;   supportUpperSeparationLayers,1
;   supportLowerSeparationLayers,1
;   supportType,0
;   supportGridSpacing,4
;   maxOverhangAngle,45
;   supportAngles,0
;   temperatureName,Primary Extruder,Heated Bed
;   temperatureNumber,0,0
;   temperatureSetpointCount,1,1
;   temperatureSetpointLayers,1,1
;   temperatureSetpointTemperatures,210,60
;   temperatureStabilizeAtStartup,1,1
;   temperatureHeatedBed,0,1
;   fanLayers,1,2
;   fanSpeeds,0,100
;   blipFanToFullPower,0
;   adjustSpeedForCooling,1
;   minSpeedLayerTime,15
;   minCoolingSpeedSlowdown,20
;   increaseFanForCooling,0
;   minFanLayerTime,45
;   maxCoolingFanSpeed,100
;   increaseFanForBridging,0
;   bridgingFanSpeed,100
;   use5D,1
;   relativeEdistances,0
;   allowEaxisZeroing,1
;   independentExtruderAxes,0
;   includeM10123,0
;   stickySupport,1
;   applyToolheadOffsets,0
;   gcodeXoffset,0
;   gcodeYoffset,0
;   gcodeZoffset,0
;   overrideMachineDefinition,1
;   machineTypeOverride,0
;   strokeXoverride,300
;   strokeYoverride,300
;   strokeZoverride,400
;   originOffsetXoverride,0
;   originOffsetYoverride,0
;   originOffsetZoverride,0
;   homeXdirOverride,-1
;   homeYdirOverride,-1
;   homeZdirOverride,-1
;   flipXoverride,1
;   flipYoverride,-1
;   flipZoverride,1
;   toolheadOffsets,0,0|0,0|0,0|0,0|0,0|0,0
;   overrideFirmwareConfiguration,1
;   firmwareTypeOverride,RepRap (Marlin/Repetier/Sprinter)
;   GPXconfigOverride,r2
;   baudRateOverride,115200
;   overridePrinterModels,1
;   printerModelsOverride
;   startingGcode,G28 ; home all axes,G1 Z5 F3000 ; lift,G1 X5 Y10 F1500 ; move to prime,G1 Z0.2 F3000 ; get ready to prime,G92 E0 ; reset extrusion distance,G1 Y80 E10 F600 ; prime nozzle,G1 Y100 F5000 ; quick wipe
;   layerChangeGcode,
;   retractionGcode,
;   toolChangeGcode,
;   endingGcode,G28 X0 ; home x axis,M106 S0 ; turn off cooling fan,M104 S0 ; turn off extruder,M140 S0 ; turn off bed,M84 ; disable motors
;   exportFileFormat,gcode
;   celebration,0
;   celebrationSong,Random Song
;   postProcessing,
;   defaultSpeed,3600
;   outlineUnderspeed,0.6
;   solidInfillUnderspeed,0.8
;   supportUnderspeed,0.8
;   rapidXYspeed,4800
;   rapidZspeed,1000
;   minBridgingArea,50
;   bridgingExtraInflation,0
;   bridgingExtrusionMultiplier,1
;   bridgingSpeedMultiplier,1
;   useFixedBridgingAngle,0
;   fixedBridgingAngle,0
;   applyBridgingToPerimeters,0
;   filamentDiameters,1.75|1.75|1.75|1.75|1.75|1.75
;   filamentPricesPerKg,46|46|46|46|46|46
;   filamentDensities,1.25|1.25|1.25|1.25|1.25|1.25
;   useMinPrintHeight,0
;   minPrintHeight,0
;   useMaxPrintHeight,0
;   maxPrintHeight,0
;   useDiaphragm,0
;   diaphragmLayerInterval,20
;   robustSlicing,1
;   mergeAllIntoSolid,0
;   onlyRetractWhenCrossingOutline,1
;   retractBetweenLayers,1
;   useRetractionMinTravel,0
;   retractionMinTravel,3
;   retractWhileWiping,0
;   onlyWipeOutlines,1
;   avoidCrossingOutline,0
;   maxMovementDetourFactor,3
;   toolChangeRetractionDistance,12
;   toolChangeExtraRestartDistance,-0.5
;   toolChangeRetractionSpeed,600
;   externalThinWallType,0
;   internalThinWallType,2
;   thinWallAllowedOverlapPercentage,10
;   singleExtrusionMinLength,1
;   singleExtrusionMinPrintingWidthPercentage,50
;   singleExtrusionMaxPrintingWidthPercentage,200
;   singleExtrusionEndpointExtension,0.2
;   horizontalSizeCompensation,0
G90
M82
M106 S0
M140 S60
M190 S60
M104 S210 T0
M109 S210 T0
G28 ; home all axes
G1 Z5 F3000 ; lift
G1 X5 Y10 F1500 ; move to prime
G1 Z0.2 F3000 ; get ready to prime
G92 E0 ; reset extrusion distance
G1 Y80 E10 F600 ; prime nozzle
G1 Y100 F5000 ; quick wipe
; process Process1
; layer 1, Z = 0.600
T0
G92 E0.0000
G1 E-5.0000 F1800
; feature skirt
; tool H0.600 W0.720
G1 Z0.600 F1000
G1 X96.794 Y121.693 F4800
G1 E0.0000 F1800
G92 E0.0000
G1 X98.661 Y120.920 E0.3267 F1800
G1 X186.339 Y120.920 E14.4993
G1 X188.206 Y121.693 E14.8260
G1 X190.807 Y124.294 E15.4205
G1 X191.580 Y126.161 E15.7471
G1 X191.580 Y173.839 E23.4540
G1 X190.807 Y175.706 E23.7807
G1 X188.206 Y178.307 E24.3752
G1 X186.339 Y179.080 E24.7018
G1 X98.661 Y179.080 E38.8744
G1 X96.794 Y178.307 E39.2011
G1 X94.193 Y175.706 E39.7956
G1 X93.420 Y173.839 E40.1223
G1 X93.420 Y126.161 E47.8291
G1 X94.193 Y124.294 E48.1558
G1 X96.794 Y121.693 E48.7503
G92 E0.0000
G1 E-5.0000 F1800
G1 X97.202 Y122.304 F4800
G1 E0.0000 F1800
G92 E0.0000
G1 X98.804 Y121.640 E0.2804 F1800
G1 X186.196 Y121.640 E14.4067
G1 X187.798 Y122.304 E14.6871
G1 X190.196 Y124.702 E15.2353
G1 X190.860 Y126.304 E15.5156
G1 X190.860 Y173.696 E23.1762
G1 X190.196 Y175.298 E23.4566
G1 X187.798 Y177.696 E24.0047
G1 X186.196 Y178.360 E24.2851
G1 X98.804 Y178.360 E38.4114
G1 X97.202 Y177.696 E38.6918
G1 X94.804 Y175.298 E39.2400
G1 X94.140 Y173.696 E39.5204
G1 X94.140 Y126.304 E47.1809
G1 X94.804 Y124.702 E47.4613
G1 X97.202 Y122.304 E48.0095
G92 E0.0000
G1 E-5.0000 F1800
; feature raft
; tool H0.600 W0.800
G1 X99.837 Y126.400 F4800
G1 E0.0000 F1800
G92 E0.0000
G1 X185.163 Y126.400 E15.3249 F450
G1 X186.100 Y127.337 E15.5629
G1 X186.100 Y172.663 E23.7036
G1 X185.163 Y173.600 E23.9417
G1 X99.837 Y173.600 E39.2665
G1 X98.900 Y172.663 E39.5046
G1 X98.900 Y127.337 E47.6453
G1 X99.837 Y126.400 E47.8833
G92 E0.0000
G1 E-5.0000 F1800
G1 X100.056 Y127.143 F4800
G1 E0.0000 F1800
G92 E0.0000
G1 X184.944 Y127.143 E15.2463 F450
G1 X185.420 Y127.619 E15.3672
G1 X185.420 Y129.429 E15.6922
G1 X99.580 Y129.429 E31.1095
G1 X99.580 Y131.714 E31.5200
G1 X185.420 Y131.714 E46.9373
G1 X185.420 Y134.000 E47.3478
G1 X99.580 Y134.000 E62.7651
G1 X99.580 Y136.286 E63.1756
G1 X185.420 Y136.286 E78.5929
G1 X185.420 Y138.571 E79.0034
G1 X99.580 Y138.571 E94.4207
G1 X99.580 Y140.857 E94.8312
G1 X185.420 Y140.857 E110.2485
G1 X185.420 Y143.143 E110.6590
G1 X99.580 Y143.143 E126.0763
G1 X99.580 Y145.429 E126.4868
G1 X185.420 Y145.429 E141.9041
G1 X185.420 Y147.714 E142.3146
G1 X99.580 Y147.714 E157.7318
G1 X99.580 Y150.000 E158.1424
G1 X185.420 Y150.000 E173.5596
G1 X185.420 Y152.286 E173.9702
G1 X99.580 Y152.286 E189.3874
G1 X99.580 Y154.571 E189.7980
G1 X185.420 Y154.571 E205.2152
G1 X185.420 Y156.857 E205.6258
G1 X99.580 Y156.857 E221.0430
G1 X99.580 Y159.143 E221.4536
G1 X185.420 Y159.143 E236.8708
G1 X185.420 Y161.429 E237.2814
G1 X99.580 Y161.429 E252.6986
G1 X99.580 Y163.714 E253.1091
G1 X185.420 Y163.714 E268.5264
G1 X185.420 Y166.000 E268.9369
G1 X99.580 Y166.000 E284.3542
G1 X99.580 Y168.286 E284.7647
G1 X185.420 Y168.286 E300.1820
G1 X185.420 Y170.571 E300.5925
G1 X99.580 Y170.571 E316.0098
G1 X99.580 Y172.381 E316.3348
G1 X100.056 Y172.857 E316.4557
G1 X184.944 Y172.857 E331.7020
G92 E0.0000
G1 E-5.0000 F1800
; layer 2, Z = 1.100
M106 S255
; tool H0.500 W0.800
G1 Z1.100 F1000
G1 X185.163 Y173.600 F4800
G1 E0.0000 F1800
G92 E0.0000
G1 X99.837 Y173.600 E12.7707 F900
G1 X98.900 Y172.663 E12.9691
G1 X98.900 Y127.337 E19.7530
G1 X99.837 Y126.400 E19.9514
G1 X185.163 Y126.400 E32.7221
G1 X186.100 Y127.337 E32.9205
G1 X186.100 Y172.663 E39.7044
G1 X185.163 Y173.600 E39.9028
G92 E0.0000
G1 E-5.0000 F1800
G1 X184.944 Y172.857 F4800
G1 E0.0000 F1800
G92 E0.0000
G1 X100.056 Y172.857 E12.7052 F900
G1 X99.580 Y172.381 E12.8060
G1 X99.580 Y170.571 E13.0768
G1 X185.420 Y170.571 E25.9246
G1 X185.420 Y168.286 E26.2667
G1 X99.580 Y168.286 E39.1144
G1 X99.580 Y166.000 E39.4565
G1 X185.420 Y166.000 E52.3042
G1 X185.420 Y163.714 E52.6463
G1 X99.580 Y163.714 E65.4941
G1 X99.580 Y161.429 E65.8362
G1 X185.420 Y161.429 E78.6839
G1 X185.420 Y159.143 E79.0260
G1 X99.580 Y159.143 E91.8737
G1 X99.580 Y156.857 E92.2158
G1 X185.420 Y156.857 E105.0635
G1 X185.420 Y154.571 E105.4056
G1 X99.580 Y154.571 E118.2534
G1 X99.580 Y152.286 E118.5955
G1 X185.420 Y152.286 E131.4432
G1 X185.420 Y150.000 E131.7853
G1 X99.580 Y150.000 E144.6330
G1 X99.580 Y147.714 E144.9751
G1 X185.420 Y147.714 E157.8229
G1 X185.420 Y145.429 E158.1650
G1 X99.580 Y145.429 E171.0127
G1 X99.580 Y143.143 E171.3548
G1 X185.420 Y143.143 E184.2025
G1 X185.420 Y140.857 E184.5446
G1 X99.580 Y140.857 E197.3923
G1 X99.580 Y138.571 E197.7344
G1 X185.420 Y138.571 E210.5822
G1 X185.420 Y136.286 E210.9243
G1 X99.580 Y136.286 E223.7720
G1 X99.580 Y134.000 E224.1141
G1 X185.420 Y134.000 E236.9618
G1 X185.420 Y131.714 E237.3039
G1 X99.580 Y131.714 E250.1517
G1 X99.580 Y129.429 E250.4938
G1 X185.420 Y129.429 E263.3415
G1 X185.420 Y127.619 E263.6123
G1 X184.944 Y127.143 E263.7131
G1 X100.056 Y127.143 E276.4183
G92 E0.0000
G1 E-5.0000 F1800
; layer 3, Z = 1.322
; tool H0.222 W0.400
G1 Z1.322 F1000
G1 X100.261 Y173.800 F4800
G1 E0.0000 F1800
G92 E0.0000
G1 X98.700 Y172.239 E0.0734 F2700
G1 X98.700 Y171.673 E0.0922
G1 X100.827 Y173.800 E0.1923
G1 X101.392 Y173.800 E0.2111
G1 X98.700 Y171.108 E0.3377
G1 X98.700 Y170.542 E0.3565
G1 X101.958 Y173.800 E0.5098
G1 X102.524 Y173.800 E0.5286
G1 X98.700 Y169.976 E0.7084
G1 X98.700 Y169.411 E0.7273
G1 X103.089 Y173.800 E0.9337
G1 X103.655 Y173.800 E0.9525
G1 X98.700 Y168.845 E1.1856
G1 X98.700 Y168.279 E1.2044
G1 X104.221 Y173.800 E1.4641
G1 X104.786 Y173.800 E1.4829
G1 X98.700 Y167.714 E1.7692
G1 X98.700 Y167.148 E1.7880
G1 X105.352 Y173.800 E2.1009
G1 X105.918 Y173.800 E2.1197
G1 X98.700 Y166.582 E2.4592
G1 X98.700 Y166.017 E2.4780
G1 X106.483 Y173.800 E2.8441
G1 X107.049 Y173.800 E2.8630
G1 X98.700 Y165.451 E3.2557
G1 X98.700 Y164.885 E3.2745
G1 X107.615 Y173.800 E3.6938
G1 X108.181 Y173.800 E3.7126
G1 X98.700 Y164.319 E4.1586
G1 X98.700 Y163.754 E4.1774
G1 X108.746 Y173.800 E4.6499
G1 X109.312 Y173.800 E4.6687
G1 X98.700 Y163.188 E5.1679
G1 X98.700 Y162.622 E5.1867
G1 X109.878 Y173.800 E5.7125
G1 X110.443 Y173.800 E5.7313
G1 X98.700 Y162.057 E6.2836
G1 X98.700 Y161.491 E6.3025
G1 X111.009 Y173.800 E6.8814
G1 X111.575 Y173.800 E6.9002
G1 X98.700 Y160.925 E7.5058
G1 X98.700 Y160.360 E7.5246
G1 X112.140 Y173.800 E8.1568
G1 X112.706 Y173.800 E8.1756
G1 X98.700 Y159.794 E8.8344
G1 X98.700 Y159.228 E8.8533
G1 X113.272 Y173.800 E9.5387
G1 X113.837 Y173.800 E9.5575
G1 X98.700 Y158.663 E10.2695
G1 X98.700 Y158.097 E10.2883
G1 X114.403 Y173.800 E11.0269
G1 X114.969 Y173.800 E11.0457
G1 X98.700 Y157.531 E11.8110
G1 X98.700 Y156.966 E11.8298
G1 X115.534 Y173.800 E12.6216
G1 X116.100 Y173.800 E12.6404
G1 X98.700 Y156.400 E13.4589
G1 X98.700 Y155.834 E13.4777
G1 X116.666 Y173.800 E14.3228
G1 X117.231 Y173.800 E14.3416
G1 X98.700 Y155.269 E15.2132
G1 X98.700 Y154.703 E15.2321
G1 X117.797 Y173.800 E16.1303
G1 X118.363 Y173.800 E16.1491
G1 X98.700 Y154.137 E17.0740
G1 X98.700 Y153.571 E17.0928
G1 X118.929 Y173.800 E18.0443
G1 X119.494 Y173.800 E18.0631
G1 X98.700 Y153.006 E19.0412
G1 X98.700 Y152.440 E19.0601
G1 X120.060 Y173.800 E20.0648
G1 X120.626 Y173.800 E20.0836
G1 X98.700 Y151.874 E21.1149
G1 X98.700 Y151.309 E21.1337
G1 X121.191 Y173.800 E22.1916
G1 X121.757 Y173.800 E22.2104
G1 X98.700 Y150.743 E23.2950
G1 X98.700 Y150.177 E23.3138
G1 X122.323 Y173.800 E24.4249
G1 X122.888 Y173.800 E24.4437
G1 X98.700 Y149.612 E25.5815
G1 X98.700 Y149.046 E25.6003
G1 X123.454 Y173.800 E26.7646
G1 X124.020 Y173.800 E26.7835
G1 X98.700 Y148.480 E27.9744
G1 X98.700 Y147.915 E27.9932
G1 X124.585 Y173.800 E29.2108
G1 X125.151 Y173.800 E29.2296
G1 X98.700 Y147.349 E30.4738
G1 X98.700 Y146.783 E30.4926
G1 X125.717 Y173.800 E31.7634
G1 X126.282 Y173.800 E31.7822
G1 X98.700 Y146.218 E33.0796
G1 X98.700 Y145.652 E33.0984
G1 X126.848 Y173.800 E34.4224
G1 X127.414 Y173.800 E34.4412
G1 X98.700 Y145.086 E35.7918
G1 X98.700 Y144.521 E35.8107
G1 X127.979 Y173.800 E37.1879
G1 X128.545 Y173.800 E37.2067
G1 X98.700 Y143.955 E38.6105
G1 X98.700 Y143.389 E38.6293
G1 X129.111 Y173.800 E40.0598
G1 X129.677 Y173.800 E40.0786
G1 X98.700 Y142.823 E41.5356
G1 X98.700 Y142.258 E41.5544
G1 X130.242 Y173.800 E43.0381
G1 X130.808 Y173.800 E43.0569
G1 X98.700 Y141.692 E44.5672
G1 X98.700 Y141.126 E44.5860
G1 X131.374 Y173.800 E46.1228
G1 X131.939 Y173.800 E46.1417
G1 X98.700 Y140.561 E47.7051
G1 X98.700 Y139.995 E47.7239
G1 X132.505 Y173.800 E49.3140
G1 X133.071 Y173.800 E49.3328
G1 X98.700 Y139.429 E50.9495
G1 X98.700 Y138.864 E50.9683
G1 X133.636 Y173.800 E52.6116
G1 X134.202 Y173.800 E52.6305
G1 X98.700 Y138.298 E54.3004
G1 X98.700 Y137.732 E54.3192
G1 X134.768 Y173.800 E56.0157
G1 X135.333 Y173.800 E56.0345
G1 X98.700 Y137.167 E57.7576
G1 X98.700 Y136.601 E57.7764
G1 X135.899 Y173.800 E59.5262
G1 X136.465 Y173.800 E59.5450
G1 X98.700 Y136.035 E61.3213
G1 X98.700 Y135.470 E61.3401
G1 X137.030 Y173.800 E63.1431
G1 X137.596 Y173.800 E63.1619
G1 X98.700 Y134.904 E64.9915
G1 X98.700 Y134.338 E65.0103
G1 X138.162 Y173.800 E66.8664
G1 X138.728 Y173.800 E66.8853
G1 X98.700 Y133.772 E68.7680
G1 X98.700 Y133.207 E68.7868
G1 X139.293 Y173.800 E70.6962
G1 X139.859 Y173.800 E70.7150
G1 X98.700 Y132.641 E72.6510
G1 X98.700 Y132.075 E72.6698
G1 X140.425 Y173.800 E74.6324
G1 X140.990 Y173.800 E74.6512
G1 X98.700 Y131.510 E76.6405
G1 X98.700 Y130.944 E76.6593
G1 X141.556 Y173.800 E78.6751
G1 X142.122 Y173.800 E78.6939
G1 X98.700 Y130.378 E80.7363
G1 X98.700 Y129.813 E80.7551
G1 X142.687 Y173.800 E82.8242
G1 X143.253 Y173.800 E82.8430
G1 X98.700 Y129.247 E84.9386
G1 X98.700 Y128.681 E84.9574
G1 X143.819 Y173.800 E87.0797
G1 X144.384 Y173.800 E87.0985
G1 X98.700 Y128.116 E89.2473
G1 X98.700 Y127.550 E89.2662
G1 X144.950 Y173.800 E91.4416
G1 X145.516 Y173.800 E91.4604
G1 X98.835 Y127.119 E93.6561
G1 X99.118 Y126.836 E93.6694
G1 X146.081 Y173.800 E95.8785
G1 X146.647 Y173.800 E95.8973
G1 X99.401 Y126.554 E98.1196
G1 X99.684 Y126.271 E98.1329
G1 X147.213 Y173.800 E100.3685
G1 X147.778 Y173.800 E100.3874
G1 X100.178 Y126.200 E102.6263
G1 X100.744 Y126.200 E102.6451
G1 X148.344 Y173.800 E104.8841
G1 X148.910 Y173.800 E104.9029
G1 X101.310 Y126.200 E107.1419
G1 X101.876 Y126.200 E107.1607
G1 X149.476 Y173.800 E109.3996
G1 X150.041 Y173.800 E109.4184
G1 X102.441 Y126.200 E111.6574
