; G-Code generated by Simplify3D(R) Version 4.1.2
; Oct 4, 2020 at 10:57:36 PM
; Settings Summary
;   processName,Process1
;   applyToModels,corps_haut 2
;   profileName,Creality CR-10 (modified)
;   profileVersion,2018-01-19 08:00:00
;   baseProfile,
;   printMaterial,PLA
;   printQuality,Medium
;   printExtruders,
;   extruderName,Primary Extruder
;   extruderToolheadNumber,0
;   extruderDiameter,0.4
;   extruderAutoWidth,0
;   extruderWidth,0.48
;   extrusionMultiplier,0.9
;   extruderUseRetract,1
;   extruderRetractionDistance,5
;   extruderExtraRestartDistance,0
;   extruderRetractionZLift,0
;   extruderRetractionSpeed,1800
;   extruderUseCoasting,0
;   extruderCoastingDistance,0.2
;   extruderUseWipe,0
;   extruderWipeDistance,5
;   primaryExtruder,0
;   layerHeight,0.2
;   topSolidLayers,3
;   bottomSolidLayers,3
;   perimeterOutlines,3
;   printPerimetersInsideOut,1
;   startPointOption,2
;   startPointOriginX,0
;   startPointOriginY,0
;   sequentialIslands,0
;   spiralVaseMode,0
;   firstLayerHeightPercentage,120
;   firstLayerWidthPercentage,150
;   firstLayerUnderspeed,0.5
;   useRaft,1
;   raftExtruder,0
;   raftTopLayers,2
;   raftBaseLayers,2
;   raftOffset,2
;   raftSeparationDistance,0.2
;   raftTopInfill,100
;   aboveRaftSpeedMultiplier,0.6
;   useSkirt,1
;   skirtExtruder,0
;   skirtLayers,1
;   skirtOutlines,2
;   skirtOffset,4
;   usePrimePillar,0
;   primePillarExtruder,999
;   primePillarWidth,12
;   primePillarLocation,7
;   primePillarSpeedMultiplier,1
;   useOozeShield,0
;   oozeShieldExtruder,999
;   oozeShieldOffset,2
;   oozeShieldOutlines,1
;   oozeShieldSidewallShape,1
;   oozeShieldSidewallAngle,30
;   oozeShieldSpeedMultiplier,1
;   infillExtruder,0
;   internalInfillPattern,Fast Honeycomb
;   externalInfillPattern,Rectilinear
;   infillPercentage,20
;   outlineOverlapPercentage,15
;   infillExtrusionWidthPercentage,100
;   minInfillLength,5
;   infillLayerInterval,1
;   internalInfillAngles,0
;   overlapInternalInfillAngles,0
;   externalInfillAngles,45,-45
;   generateSupport,0
;   supportExtruder,0
;   supportInfillPercentage,30
;   supportExtraInflation,0
;   supportBaseLayers,0
;   denseSupportExtruder,0
;   denseSupportLayers,0
;   denseSupportInfillPercentage,70
;   supportLayerInterval,1
;   supportHorizontalPartOffset,0.3
;   supportUpperSeparationLayers,1
;   supportLowerSeparationLayers,1
;   supportType,0
;   supportGridSpacing,4
;   maxOverhangAngle,45
;   supportAngles,0
;   temperatureName,Primary Extruder,Heated Bed
;   temperatureNumber,0,0
;   temperatureSetpointCount,1,1
;   temperatureSetpointLayers,1,1
;   temperatureSetpointTemperatures,210,60
;   temperatureStabilizeAtStartup,1,1
;   temperatureHeatedBed,0,1
;   fanLayers,1,2
;   fanSpeeds,0,100
;   blipFanToFullPower,0
;   adjustSpeedForCooling,1
;   minSpeedLayerTime,15
;   minCoolingSpeedSlowdown,20
;   increaseFanForCooling,0
;   minFanLayerTime,45
;   maxCoolingFanSpeed,100
;   increaseFanForBridging,0
;   bridgingFanSpeed,100
;   use5D,1
;   relativeEdistances,0
;   allowEaxisZeroing,1
;   independentExtruderAxes,0
;   includeM10123,0
;   stickySupport,1
;   applyToolheadOffsets,0
;   gcodeXoffset,0
;   gcodeYoffset,0
;   gcodeZoffset,0
;   overrideMachineDefinition,1
;   machineTypeOverride,0
;   strokeXoverride,300
;   strokeYoverride,300
;   strokeZoverride,400
;   originOffsetXoverride,0
;   originOffsetYoverride,0
;   originOffsetZoverride,0
;   homeXdirOverride,-1
;   homeYdirOverride,-1
;   homeZdirOverride,-1
;   flipXoverride,1
;   flipYoverride,-1
;   flipZoverride,1
;   toolheadOffsets,0,0|0,0|0,0|0,0|0,0|0,0
;   overrideFirmwareConfiguration,1
;   firmwareTypeOverride,RepRap (Marlin/Repetier/Sprinter)
;   GPXconfigOverride,r2
;   baudRateOverride,115200
;   overridePrinterModels,1
;   printerModelsOverride
;   startingGcode,G28 ; home all axes,G1 Z5 F3000 ; lift,G1 X5 Y10 F1500 ; move to prime,G1 Z0.2 F3000 ; get ready to prime,G92 E0 ; reset extrusion distance,G1 Y80 E10 F600 ; prime nozzle,G1 Y100 F5000 ; quick wipe
;   layerChangeGcode,
;   retractionGcode,
;   toolChangeGcode,
;   endingGcode,G28 X0 ; home x axis,M106 S0 ; turn off cooling fan,M104 S0 ; turn off extruder,M140 S0 ; turn off bed,M84 ; disable motors
;   exportFileFormat,gcode
;   celebration,0
;   celebrationSong,Random Song
;   postProcessing,
;   defaultSpeed,3600
;   outlineUnderspeed,0.6
;   solidInfillUnderspeed,0.8
;   supportUnderspeed,0.8
;   rapidXYspeed,4800
;   rapidZspeed,1000
;   minBridgingArea,50
;   bridgingExtraInflation,0
;   bridgingExtrusionMultiplier,1
;   bridgingSpeedMultiplier,1
;   useFixedBridgingAngle,0
;   fixedBridgingAngle,0
;   applyBridgingToPerimeters,0
;   filamentDiameters,1.75|1.75|1.75|1.75|1.75|1.75
;   filamentPricesPerKg,46|46|46|46|46|46
;   filamentDensities,1.25|1.25|1.25|1.25|1.25|1.25
;   useMinPrintHeight,0
;   minPrintHeight,0
;   useMaxPrintHeight,0
;   maxPrintHeight,0
;   useDiaphragm,0
;   diaphragmLayerInterval,20
;   robustSlicing,1
;   mergeAllIntoSolid,0
;   onlyRetractWhenCrossingOutline,1
;   retractBetweenLayers,1
;   useRetractionMinTravel,0
;   retractionMinTravel,3
;   retractWhileWiping,0
;   onlyWipeOutlines,1
;   avoidCrossingOutline,0
;   maxMovementDetourFactor,3
;   toolChangeRetractionDistance,12
;   toolChangeExtraRestartDistance,-0.5
;   toolChangeRetractionSpeed,600
;   externalThinWallType,0
;   internalThinWallType,2
;   thinWallAllowedOverlapPercentage,10
;   singleExtrusionMinLength,1
;   singleExtrusionMinPrintingWidthPercentage,50
;   singleExtrusionMaxPrintingWidthPercentage,200
;   singleExtrusionEndpointExtension,0.2
;   horizontalSizeCompensation,0
G90
M82
M106 S0
M140 S60
M190 S60
M104 S210 T0
M109 S210 T0
G28 ; home all axes
G1 Z5 F3000 ; lift
G1 X5 Y10 F1500 ; move to prime
G1 Z0.2 F3000 ; get ready to prime
G92 E0 ; reset extrusion distance
G1 Y80 E10 F600 ; prime nozzle
G1 Y100 F5000 ; quick wipe
; process Process1
; layer 1, Z = 0.600
T0
G92 E0.0000
G1 E-5.0000 F1800
; feature skirt
; tool H0.600 W0.720
G1 Z0.600 F1000
G1 X105.294 Y122.693 F4800
G1 E0.0000 F1800
G92 E0.0000
G1 X107.161 Y121.920 E0.3267 F1800
G1 X192.839 Y121.920 E14.1760
G1 X194.706 Y122.693 E14.5027
G1 X197.307 Y125.294 E15.0972
G1 X198.080 Y127.161 E15.4238
G1 X198.080 Y172.839 E22.8074
G1 X197.307 Y174.706 E23.1341
G1 X194.706 Y177.307 E23.7286
G1 X192.839 Y178.080 E24.0552
G1 X107.161 Y178.080 E37.9046
G1 X105.294 Y177.307 E38.2312
G1 X102.693 Y174.706 E38.8257
G1 X101.920 Y172.839 E39.1524
G1 X101.920 Y127.161 E46.5360
G1 X102.693 Y125.294 E46.8627
G1 X105.294 Y122.693 E47.4571
G92 E0.0000
G1 E-5.0000 F1800
G1 X105.702 Y123.304 F4800
G1 E0.0000 F1800
G92 E0.0000
G1 X107.304 Y122.640 E0.2804 F1800
G1 X192.696 Y122.640 E14.0834
G1 X194.298 Y123.304 E14.3638
G1 X196.696 Y125.702 E14.9120
G1 X197.360 Y127.304 E15.1923
G1 X197.360 Y172.696 E22.5296
G1 X196.696 Y174.298 E22.8100
G1 X194.298 Y176.696 E23.3582
G1 X192.696 Y177.360 E23.6385
G1 X107.304 Y177.360 E37.4416
G1 X105.702 Y176.696 E37.7219
G1 X103.304 Y174.298 E38.2701
G1 X102.640 Y172.696 E38.5505
G1 X102.640 Y127.304 E45.8878
G1 X103.304 Y125.702 E46.1681
G1 X105.702 Y123.304 E46.7163
G92 E0.0000
G1 E-5.0000 F1800
; feature raft
; tool H0.600 W0.800
G1 X108.337 Y127.400 F4800
G1 E0.0000 F1800
G92 E0.0000
G1 X191.663 Y127.400 E14.9657 F450
G1 X192.600 Y128.337 E15.2037
G1 X192.600 Y171.663 E22.9852
G1 X191.663 Y172.600 E23.2232
G1 X108.337 Y172.600 E38.1889
G1 X107.400 Y171.663 E38.4270
G1 X107.400 Y128.337 E46.2084
G1 X108.337 Y127.400 E46.4465
G92 E0.0000
G1 E-5.0000 F1800
G1 X111.600 Y131.600 F4800
G1 E0.0000 F1800
G92 E0.0000
G1 X111.600 Y168.400 E6.6095 F450
G1 X188.400 Y168.400 E20.4031
G1 X188.400 Y131.600 E27.0126
G1 X111.600 Y131.600 E40.8062
G92 E0.0000
G1 E-5.0000 F1800
G1 X108.080 Y129.429 F4800
G1 E0.0000 F1800
G92 E0.0000
G1 X191.920 Y129.429 E15.0581 F450
G1 X191.920 Y131.714 E15.4686
G1 X189.080 Y131.714 E15.9787
G1 X189.080 Y130.920 E16.1213
G1 X110.920 Y130.920 E30.1592
G1 X110.920 Y131.714 E30.3019
G1 X108.080 Y131.714 E30.8120
G1 X108.080 Y134.000 E31.2225
G1 X110.920 Y134.000 E31.7326
G1 X110.920 Y136.286 E32.1431
G1 X108.080 Y136.286 E32.6532
G1 X108.080 Y138.571 E33.0637
G1 X110.920 Y138.571 E33.5738
G1 X110.920 Y140.857 E33.9843
G1 X108.080 Y140.857 E34.4944
G1 X108.080 Y143.143 E34.9049
G1 X110.920 Y143.143 E35.4150
G1 X110.920 Y145.429 E35.8255
G1 X108.080 Y145.429 E36.3356
G1 X108.080 Y147.714 E36.7461
G1 X110.920 Y147.714 E37.2562
G1 X110.920 Y150.000 E37.6667
G1 X108.080 Y150.000 E38.1768
G1 X108.080 Y152.286 E38.5873
G1 X110.920 Y152.286 E39.0974
G1 X110.920 Y154.571 E39.5079
G1 X108.080 Y154.571 E40.0180
G1 X108.080 Y156.857 E40.4285
G1 X110.920 Y156.857 E40.9386
G1 X110.920 Y159.143 E41.3491
G1 X108.080 Y159.143 E41.8592
G1 X108.080 Y161.429 E42.2697
G1 X110.920 Y161.429 E42.7798
G1 X110.920 Y163.714 E43.1903
G1 X108.080 Y163.714 E43.7004
G1 X108.080 Y166.000 E44.1109
G1 X110.920 Y166.000 E44.6210
G1 X110.920 Y168.286 E45.0315
G1 X108.080 Y168.286 E45.5416
G1 X108.080 Y170.571 E45.9521
G1 X191.920 Y170.571 E61.0102
G1 X191.920 Y168.286 E61.4207
G1 X189.080 Y168.286 E61.9308
G1 X189.080 Y166.000 E62.3413
G1 X191.920 Y166.000 E62.8514
G1 X191.920 Y163.714 E63.2619
G1 X189.080 Y163.714 E63.7720
G1 X189.080 Y161.429 E64.1825
G1 X191.920 Y161.429 E64.6926
G1 X191.920 Y159.143 E65.1031
G1 X189.080 Y159.143 E65.6132
G1 X189.080 Y156.857 E66.0237
G1 X191.920 Y156.857 E66.5338
G1 X191.920 Y154.571 E66.9443
G1 X189.080 Y154.571 E67.4544
G1 X189.080 Y152.286 E67.8649
G1 X191.920 Y152.286 E68.3750
G1 X191.920 Y150.000 E68.7855
G1 X189.080 Y150.000 E69.2956
G1 X189.080 Y147.714 E69.7061
G1 X191.920 Y147.714 E70.2162
G1 X191.920 Y145.429 E70.6267
G1 X189.080 Y145.429 E71.1368
G1 X189.080 Y143.143 E71.5473
G1 X191.920 Y143.143 E72.0574
G1 X191.920 Y140.857 E72.4679
G1 X189.080 Y140.857 E72.9780
G1 X189.080 Y138.571 E73.3886
G1 X191.920 Y138.571 E73.8986
G1 X191.920 Y136.286 E74.3092
G1 X189.080 Y136.286 E74.8192
G1 X189.080 Y134.000 E75.2298
G1 X191.920 Y134.000 E75.7398
G92 E0.0000
G1 E-5.0000 F1800
; layer 2, Z = 1.100
M106 S255
; tool H0.500 W0.800
G1 Z1.100 F1000
G1 X192.600 Y128.337 F4800
G1 E0.0000 F1800
G92 E0.0000
G1 X192.600 Y171.663 E6.4846 F900
G1 X191.663 Y172.600 E6.6829
G1 X108.337 Y172.600 E19.1543
G1 X107.400 Y171.663 E19.3527
G1 X107.400 Y128.337 E25.8373
G1 X108.337 Y127.400 E26.0356
G1 X191.663 Y127.400 E38.5070
G1 X192.600 Y128.337 E38.7054
G92 E0.0000
G1 E-5.0000 F1800
G1 X188.400 Y131.600 F4800
G1 E0.0000 F1800
G92 E0.0000
G1 X111.600 Y131.600 E11.4947 F900
G1 X111.600 Y168.400 E17.0026
G1 X188.400 Y168.400 E28.4973
G1 X188.400 Y131.600 E34.0052
G92 E0.0000
G1 E-5.0000 F1800
G1 X191.920 Y134.000 F4800
G1 E0.0000 F1800
G92 E0.0000
G1 X189.080 Y134.000 E0.4251 F900
G1 X189.080 Y136.286 E0.7672
G1 X191.920 Y136.286 E1.1922
G1 X191.920 Y138.571 E1.5343
G1 X189.080 Y138.571 E1.9594
G1 X189.080 Y140.857 E2.3015
G1 X191.920 Y140.857 E2.7266
G1 X191.920 Y143.143 E3.0687
G1 X189.080 Y143.143 E3.4937
G1 X189.080 Y145.429 E3.8358
G1 X191.920 Y145.429 E4.2609
G1 X191.920 Y147.714 E4.6030
G1 X189.080 Y147.714 E5.0281
G1 X189.080 Y150.000 E5.3702
G1 X191.920 Y150.000 E5.7952
G1 X191.920 Y152.286 E6.1374
G1 X189.080 Y152.286 E6.5624
G1 X189.080 Y154.571 E6.9045
G1 X191.920 Y154.571 E7.3296
G1 X191.920 Y156.857 E7.6717
G1 X189.080 Y156.857 E8.0968
G1 X189.080 Y159.143 E8.4389
G1 X191.920 Y159.143 E8.8639
G1 X191.920 Y161.429 E9.2060
G1 X189.080 Y161.429 E9.6311
G1 X189.080 Y163.714 E9.9732
G1 X191.920 Y163.714 E10.3983
G1 X191.920 Y166.000 E10.7404
G1 X189.080 Y166.000 E11.1654
G1 X189.080 Y168.286 E11.5075
G1 X191.920 Y168.286 E11.9326
G1 X191.920 Y170.571 E12.2747
G1 X108.080 Y170.571 E24.8231
G1 X108.080 Y168.286 E25.1652
G1 X110.920 Y168.286 E25.5903
G1 X110.920 Y166.000 E25.9324
G1 X108.080 Y166.000 E26.3574
G1 X108.080 Y163.714 E26.6995
G1 X110.920 Y163.714 E27.1246
G1 X110.920 Y161.429 E27.4667
G1 X108.080 Y161.429 E27.8918
G1 X108.080 Y159.143 E28.2339
G1 X110.920 Y159.143 E28.6589
G1 X110.920 Y156.857 E29.0010
G1 X108.080 Y156.857 E29.4261
G1 X108.080 Y154.571 E29.7682
G1 X110.920 Y154.571 E30.1933
G1 X110.920 Y152.286 E30.5354
G1 X108.080 Y152.286 E30.9604
G1 X108.080 Y150.000 E31.3025
G1 X110.920 Y150.000 E31.7276
G1 X110.920 Y147.714 E32.0697
G1 X108.080 Y147.714 E32.4948
G1 X108.080 Y145.429 E32.8369
G1 X110.920 Y145.429 E33.2619
G1 X110.920 Y143.143 E33.6040
G1 X108.080 Y143.143 E34.0291
G1 X108.080 Y140.857 E34.3712
G1 X110.920 Y140.857 E34.7963
G1 X110.920 Y138.571 E35.1384
G1 X108.080 Y138.571 E35.5634
G1 X108.080 Y136.286 E35.9056
G1 X110.920 Y136.286 E36.3306
G1 X110.920 Y134.000 E36.6727
G1 X108.080 Y134.000 E37.0978
G1 X108.080 Y131.714 E37.4399
G1 X110.920 Y131.714 E37.8650
G1 X110.920 Y130.920 E37.9838
G1 X189.080 Y130.920 E49.6821
G1 X189.080 Y131.714 E49.8010
G1 X191.920 Y131.714 E50.2260
G1 X191.920 Y129.429 E50.5681
G1 X108.080 Y129.429 E63.1165
G92 E0.0000
G1 E-5.0000 F1800
; layer 3, Z = 1.322
; tool H0.222 W0.400
G1 Z1.322 F1000
G1 X112.197 Y168.200 F4800
G1 E0.0000 F1800
G92 E0.0000
G1 X116.797 Y172.800 E0.2164 F2700
G1 X117.363 Y172.800 E0.2352
G1 X112.763 Y168.200 E0.4516
G1 X113.329 Y168.200 E0.4704
G1 X117.929 Y172.800 E0.6867
G1 X118.494 Y172.800 E0.7056
G1 X113.894 Y168.200 E0.9219
G1 X114.460 Y168.200 E0.9407
G1 X119.060 Y172.800 E1.1571
G1 X119.626 Y172.800 E1.1759
G1 X115.026 Y168.200 E1.3923
G1 X115.591 Y168.200 E1.4111
G1 X120.191 Y172.800 E1.6275
G1 X120.757 Y172.800 E1.6463
G1 X116.157 Y168.200 E1.8627
G1 X116.723 Y168.200 E1.8815
G1 X121.323 Y172.800 E2.0978
G1 X121.888 Y172.800 E2.1167
G1 X117.288 Y168.200 E2.3330
G1 X117.854 Y168.200 E2.3518
G1 X122.454 Y172.800 E2.5682
G1 X123.020 Y172.800 E2.5870
G1 X118.420 Y168.200 E2.8034
G1 X118.985 Y168.200 E2.8222
G1 X123.585 Y172.800 E3.0386
G1 X124.151 Y172.800 E3.0574
G1 X119.551 Y168.200 E3.2738
G1 X120.117 Y168.200 E3.2926
G1 X124.717 Y172.800 E3.5090
G1 X125.282 Y172.800 E3.5278
G1 X120.682 Y168.200 E3.7441
G1 X121.248 Y168.200 E3.7630
G1 X125.848 Y172.800 E3.9793
G1 X126.414 Y172.800 E3.9981
G1 X121.814 Y168.200 E4.2145
G1 X122.379 Y168.200 E4.2333
G1 X126.979 Y172.800 E4.4497
G1 X127.545 Y172.800 E4.4685
G1 X122.945 Y168.200 E4.6849
G1 X123.511 Y168.200 E4.7037
G1 X128.111 Y172.800 E4.9201
G1 X128.677 Y172.800 E4.9389
G1 X124.077 Y168.200 E5.1552
G1 X124.642 Y168.200 E5.1741
G1 X129.242 Y172.800 E5.3904
G1 X129.808 Y172.800 E5.4092
G1 X125.208 Y168.200 E5.6256
G1 X125.774 Y168.200 E5.6444
G1 X130.374 Y172.800 E5.8608
G1 X130.939 Y172.800 E5.8796
G1 X126.339 Y168.200 E6.0960
G1 X126.905 Y168.200 E6.1148
G1 X131.505 Y172.800 E6.3312
G1 X132.071 Y172.800 E6.3500
G1 X127.471 Y168.200 E6.5664
G1 X128.036 Y168.200 E6.5852
G1 X132.636 Y172.800 E6.8015
G1 X133.202 Y172.800 E6.8204
G1 X128.602 Y168.200 E7.0367
G1 X129.168 Y168.200 E7.0555
G1 X133.768 Y172.800 E7.2719
G1 X134.333 Y172.800 E7.2907
G1 X129.733 Y168.200 E7.5071
G1 X130.299 Y168.200 E7.5259
G1 X134.899 Y172.800 E7.7423
G1 X135.465 Y172.800 E7.7611
G1 X130.865 Y168.200 E7.9775
G1 X131.430 Y168.200 E7.9963
G1 X136.030 Y172.800 E8.2126
G1 X136.596 Y172.800 E8.2315
G1 X131.996 Y168.200 E8.4478
G1 X132.562 Y168.200 E8.4666
G1 X137.162 Y172.800 E8.6830
G1 X137.728 Y172.800 E8.7018
G1 X133.128 Y168.200 E8.9182
G1 X133.693 Y168.200 E8.9370
G1 X138.293 Y172.800 E9.1534
G1 X138.859 Y172.800 E9.1722
G1 X134.259 Y168.200 E9.3886
G1 X134.825 Y168.200 E9.4074
G1 X139.425 Y172.800 E9.6238
G1 X139.990 Y172.800 E9.6426
G1 X135.390 Y168.200 E9.8589
G1 X135.956 Y168.200 E9.8778
G1 X140.556 Y172.800 E10.0941
G1 X141.122 Y172.800 E10.1129
G1 X136.522 Y168.200 E10.3293
G1 X137.087 Y168.200 E10.3481
G1 X141.687 Y172.800 E10.5645
G1 X142.253 Y172.800 E10.5833
G1 X137.653 Y168.200 E10.7997
G1 X138.219 Y168.200 E10.8185
G1 X142.819 Y172.800 E11.0349
G1 X143.384 Y172.800 E11.0537
G1 X138.784 Y168.200 E11.2700
G1 X139.350 Y168.200 E11.2889
G1 X143.950 Y172.800 E11.5052
G1 X144.516 Y172.800 E11.5240
G1 X139.916 Y168.200 E11.7404
G1 X140.481 Y168.200 E11.7592
G1 X145.081 Y172.800 E11.9756
G1 X145.647 Y172.800 E11.9944
G1 X141.047 Y168.200 E12.2108
