;FLAVOR:Marlin
;TIME:8339
;Filament used: 5.71668m
;Layer height: 0.2
;MINX:120.912
;MINY:100.953
;MINZ:0.24
;MAXX:179.105
;MAXY:199.038
;MAXZ:18.09
;Generated with Cura_SteamEngine 4.8.0
M140 S60
M105
M190 S60
M104 S210
M105
M109 S210
M82 ;absolute extrusion mode
M201 X500.00 Y500.00 Z100.00 E5000.00 ;Setup machine max acceleration
M203 X500.00 Y500.00 Z10.00 E50.00 ;Setup machine max feedrate
M204 P500.00 R1000.00 T500.00 ;Setup Print/Retract/Travel acceleration
M205 X8.00 Y8.00 Z0.40 E5.00 ;Setup Jerk
M220 S100 ;Reset Feedrate
M221 S100 ;Reset Flowrate

G28 ;Home

G92 E0 ;Reset Extruder
G1 Z2.0 F3000 ;Move Z Axis up
G1 X10.1 Y20 Z0.28 F5000.0 ;Move to start position
G1 X10.1 Y200.0 Z0.28 F1500.0 E15 ;Draw the first line
G1 X10.4 Y200.0 Z0.28 F5000.0 ;Move to side a little
G1 X10.4 Y20 Z0.28 F1500.0 E30 ;Draw the second line
G92 E0 ;Reset Extruder
G1 Z2.0 F3000 ;Move Z Axis up

G92 E0
G92 E0
G1 F2700 E-5
;LAYER_COUNT:85
;LAYER:-6
M107
G0 F9000 X123.938 Y104.999 Z0.24
;TYPE:SUPPORT-INTERFACE
G1 F2700 E0
G1 F1350 X124.107 Y104.816 E0.01988
G1 X124.361 Y104.575 E0.04783
G1 X124.754 Y104.256 E0.08824
G1 X124.919 Y104.134 E0.10462
G1 X125.919 Y103.452 E0.20124
G1 X126.056 Y103.356 E0.21459
G1 X126.439 Y103.076 E0.25247
G1 X126.566 Y102.99 E0.26471
G1 X126.869 Y102.797 E0.29339
G1 X127.134 Y102.651 E0.31754
G1 X127.4 Y102.525 E0.34103
G1 X127.674 Y102.417 E0.36454
G1 X127.931 Y102.333 E0.38612
G1 X128.232 Y102.256 E0.41092
G1 X128.508 Y102.204 E0.43334
G1 X128.797 Y102.168 E0.45659
G1 X129.085 Y102.15 E0.47963
G1 X129.331 Y102.151 E0.49926
G1 X129.65 Y102.122 E0.52483
G1 X129.654 Y102.15 E0.52709
G1 X130.502 Y102.043 E0.59532
G1 X130.861 Y102.021 E0.62403
G1 X131.013 Y102.017 E0.63617
G1 X133.343 Y102.017 E0.82216
G1 X133.454 Y102.02 E0.83102
G1 X133.826 Y102.04 E0.86076
G1 X133.962 Y102.051 E0.87165
G1 X134.272 Y102.083 E0.89653
G1 X134.937 Y102.11 E0.94965
G1 X135.317 Y102.088 E0.98004
G1 X135.966 Y102.028 E1.03206
G1 X136.19 Y102.017 E1.04997
G1 X137.932 Y102.017 E1.18902
G1 X138.056 Y102.021 E1.19892
G1 X138.435 Y102.045 E1.22924
G1 X139.079 Y102.046 E1.28064
G1 X139.479 Y102.022 E1.31263
G1 X139.639 Y102.017 E1.32541
G1 X143.318 Y102.017 E1.61908
G1 X143.447 Y102.021 E1.62939
G1 X143.858 Y102.047 E1.66226
G1 X144.549 Y102.045 E1.71742
G1 X144.87 Y102.023 E1.7431
G1 X145.033 Y102.017 E1.75612
G1 X145.747 Y102.017 E1.81312
G1 X145.926 Y102.023 E1.82741
G1 X146.026 Y102.029 E1.83541
G1 X146.688 Y102.029 E1.88825
G1 X146.815 Y102.021 E1.89841
G1 X146.94 Y102.017 E1.90839
G1 X148.224 Y102.017 E2.01089
G1 X148.403 Y102.023 E2.02519
G1 X148.503 Y102.029 E2.03318
G1 X149.165 Y102.029 E2.08603
G1 X149.292 Y102.021 E2.09618
G1 X149.417 Y102.017 E2.10617
G1 X150.882 Y102.017 E2.22311
G1 X151.013 Y102.021 E2.23357
G1 X151.424 Y102.047 E2.26644
G1 X152.111 Y102.045 E2.32128
G1 X152.429 Y102.023 E2.34673
G1 X152.6 Y102.017 E2.36039
G1 X156.314 Y102.017 E2.65685
G1 X156.438 Y102.021 E2.66676
G1 X156.817 Y102.045 E2.69707
G1 X157.459 Y102.046 E2.74832
G1 X157.858 Y102.022 E2.78023
G1 X158.024 Y102.017 E2.79348
G1 X161.7 Y102.017 E3.08692
G1 X161.824 Y102.021 E3.09682
G1 X162.203 Y102.045 E3.12714
G1 X162.847 Y102.046 E3.17854
G1 X163.247 Y102.022 E3.21053
G1 X163.408 Y102.017 E3.22339
G1 X167.086 Y102.017 E3.51698
G1 X167.207 Y102.021 E3.52665
G1 X167.619 Y102.047 E3.5596
G1 X168.307 Y102.045 E3.61452
G1 X168.621 Y102.023 E3.63964
G1 X168.801 Y102.017 E3.65402
G1 X169.868 Y102.017 E3.73919
G1 X169.994 Y102.021 E3.74926
G1 X170.371 Y102.045 E3.77941
G1 X170.669 Y102.082 E3.80338
G1 X170.953 Y102.137 E3.82647
G1 X171.239 Y102.212 E3.85007
G1 X171.488 Y102.293 E3.87098
G1 X172.317 Y102.633 E3.9425
G1 X172.32 Y102.627 E3.94303
G1 X172.703 Y102.743 E3.97498
G1 X172.922 Y102.8 E3.99304
G1 X173.189 Y102.888 E4.01548
G1 X173.447 Y102.99 E4.03763
G1 X173.732 Y103.125 E4.0628
G1 X173.983 Y103.264 E4.08571
G1 X174.273 Y103.449 E4.11316
G1 X174.399 Y103.535 E4.12534
G1 X174.836 Y103.854 E4.16853
G1 X174.955 Y103.947 E4.18059
G1 X175.244 Y104.187 E4.21057
G1 X175.443 Y104.374 E4.23237
G1 X175.659 Y104.606 E4.25767
G1 X175.835 Y104.821 E4.27985
G1 X176.006 Y105.059 E4.30325
G1 X176.187 Y105.348 E4.33047
G1 X176.566 Y105.872 E4.38209
G1 X176.722 Y106.063 E4.40177
G1 X176.891 Y106.298 E4.42488
G1 X177.041 Y106.534 E4.4472
G1 X177.201 Y106.829 E4.47399
G1 X177.301 Y107.045 E4.49299
G1 X177.435 Y107.384 E4.52209
G1 X177.487 Y107.528 E4.53431
G1 X177.645 Y108.015 E4.57518
G1 X177.692 Y108.175 E4.58849
G1 X177.781 Y108.517 E4.6167
G1 X177.836 Y108.808 E4.64034
G1 X177.876 Y109.123 E4.66569
G1 X177.892 Y109.381 E4.68632
G1 X177.892 Y109.678 E4.71003
G1 X177.928 Y110.062 E4.74082
G1 X177.911 Y110.064 E4.74218
G1 X178.007 Y110.863 E4.80642
G1 X178.023 Y111.228 E4.83558
G1 X178.001 Y111.828 E4.88351
G1 X177.983 Y112.051 E4.90137
G1 X177.965 Y112.186 E4.91224
G1 X177.92 Y112.858 E4.966
G1 X177.937 Y113.105 E4.98577
G1 X177.912 Y113.105 E4.98776
G1 X177.991 Y113.77 E5.04122
G1 X178.024 Y114.136 E5.07055
G1 X178.031 Y114.444 E5.09514
G1 X178.021 Y114.723 E5.11743
G1 X177.986 Y115.044 E5.14321
G1 X177.956 Y115.709 E5.19634
G1 X177.985 Y116.177 E5.23377
G1 X178 Y116.313 E5.24469
G1 X178.027 Y116.673 E5.27351
G1 X178.03 Y116.987 E5.29858
G1 X178.014 Y117.27 E5.3212
G1 X177.987 Y117.515 E5.34088
G1 X177.953 Y118.18 E5.39403
G1 X177.982 Y118.662 E5.43258
G1 X177.999 Y118.828 E5.4459
G1 X178.027 Y119.195 E5.47528
G1 X178.03 Y119.507 E5.50018
G1 X178.014 Y119.789 E5.52273
G1 X177.999 Y119.926 E5.53373
G1 X177.964 Y120.59 E5.58681
G1 X177.986 Y121.003 E5.61982
G1 X178.023 Y121.414 E5.65276
G1 X178.032 Y121.705 E5.676
G1 X178.019 Y122.039 E5.70268
G1 X177.948 Y122.799 E5.76362
G1 X177.959 Y122.801 E5.76451
G1 X177.952 Y122.883 E5.77108
G1 X177.984 Y123.565 E5.82558
G1 X177.992 Y123.633 E5.83104
G1 X178.025 Y124.032 E5.863
G1 X178.031 Y124.319 E5.88592
G1 X178.011 Y124.781 E5.92283
G1 X178.015 Y125.315 E5.96546
G1 X178.028 Y125.516 E5.98153
G1 X178.025 Y125.959 E6.0169
G1 X178.019 Y126.099 E6.02808
G1 X177.964 Y126.813 E6.08525
G1 X177.96 Y127.553 E6.14432
G1 X178.022 Y128.503 E6.22031
G1 X178.028 Y128.663 E6.23309
G1 X178.03 Y129.081 E6.26646
G1 X178.018 Y129.305 E6.28437
G1 X177.999 Y129.486 E6.29889
G1 X177.925 Y130.073 E6.34612
G1 X177.942 Y130.076 E6.3475
G1 X177.928 Y130.224 E6.35937
G1 X177.955 Y130.698 E6.39726
G1 X177.931 Y130.703 E6.39922
G1 X177.994 Y131.289 E6.44627
G1 X178.024 Y131.662 E6.47614
G1 X178.028 Y132 E6.50312
G1 X178.005 Y132.414 E6.53622
G1 X177.989 Y132.582 E6.54969
G1 X177.961 Y132.807 E6.56779
G1 X177.917 Y133.477 E6.62139
G1 X177.935 Y133.734 E6.64195
G1 X177.911 Y133.734 E6.64387
G1 X177.991 Y134.401 E6.69749
G1 X178.024 Y134.787 E6.72842
G1 X178.031 Y135.081 E6.75189
G1 X178.014 Y135.456 E6.78186
G1 X178.002 Y135.625 E6.79538
G1 X177.938 Y136.209 E6.84228
G1 X177.907 Y136.876 E6.89558
G1 X177.944 Y137.417 E6.93886
G1 X177.995 Y137.851 E6.97375
G1 X178.011 Y138.027 E6.98785
G1 X178.032 Y138.396 E7.01736
G1 X178.033 Y138.643 E7.03707
G1 X178.029 Y138.765 E7.04682
G1 X177.964 Y139.664 E7.11877
G1 X177.961 Y140.397 E7.17728
G1 X178.021 Y141.278 E7.24777
G1 X178.026 Y141.488 E7.26453
G1 X178.013 Y142.123 E7.31523
G1 X178.002 Y142.298 E7.32923
G1 X177.957 Y142.726 E7.36358
G1 X177.929 Y143.39 E7.41663
G1 X177.947 Y143.739 E7.44453
G1 X178.021 Y144.603 E7.51375
G1 X178.039 Y145.049 E7.54938
G1 X178.039 Y146.942 E7.70049
G1 X178.037 Y147.047 E7.70887
G1 X178.029 Y147.275 E7.72708
G1 X178.019 Y147.435 E7.73988
G1 X177.906 Y148.896 E7.85685
G1 X177.897 Y149.564 E7.91018
G1 X177.954 Y150.123 E7.95503
G1 X177.973 Y150.246 E7.96497
G1 X177.989 Y150.371 E7.97503
G1 X178.024 Y150.751 E8.00549
G1 X178.032 Y151.035 E8.02817
G1 X178.02 Y151.343 E8.05277
G1 X177.996 Y151.585 E8.07218
G1 X177.972 Y152.249 E8.12522
G1 X177.993 Y152.616 E8.15456
G1 X178.006 Y152.745 E8.16491
G1 X178.028 Y153.094 E8.19283
G1 X178.029 Y153.403 E8.21749
G1 X178.008 Y153.752 E8.2454
G1 X177.993 Y153.909 E8.25799
G1 X177.956 Y154.21 E8.2822
G1 X177.914 Y154.882 E8.33595
G1 X177.94 Y155.209 E8.36213
G1 X177.922 Y155.213 E8.3636
G1 X177.99 Y155.79 E8.40998
G1 X178.024 Y156.168 E8.44028
G1 X178.031 Y156.482 E8.46535
G1 X178.019 Y156.769 E8.48828
G1 X177.999 Y156.97 E8.5044
G1 X177.971 Y157.635 E8.55753
G1 X177.999 Y158.067 E8.59209
G1 X178.018 Y158.25 E8.60677
G1 X178.032 Y158.562 E8.6317
G1 X178.025 Y158.841 E8.65398
G1 X177.954 Y159.674 E8.72072
G1 X177.973 Y159.949 E8.74272
G1 X177.947 Y159.951 E8.7448
G1 X178.007 Y160.604 E8.79715
G1 X178.035 Y161.041 E8.8321
G1 X178.039 Y161.17 E8.8424
G1 X178.039 Y163.05 E8.99247
G1 X178.035 Y163.176 E9.00254
G1 X177.973 Y164.157 E9.081
G1 X177.986 Y164.157 E9.08204
G1 X178 Y164.556 E9.11391
G1 X178.025 Y164.873 E9.13929
G1 X178.031 Y165.145 E9.16101
G1 X178.02 Y165.427 E9.18354
G1 X177.987 Y165.729 E9.20779
G1 X177.956 Y166.394 E9.26093
G1 X177.985 Y166.87 E9.29899
G1 X178 Y167.007 E9.31
G1 X178.027 Y167.367 E9.33881
G1 X178.03 Y167.681 E9.36388
G1 X178.014 Y167.972 E9.38714
G1 X177.982 Y168.275 E9.41146
G1 X177.952 Y168.941 E9.46468
G1 X177.983 Y169.424 E9.50332
G1 X177.996 Y169.543 E9.51287
G1 X178.026 Y169.916 E9.54274
G1 X178.031 Y170.181 E9.5639
G1 X178.015 Y170.524 E9.59131
G1 X177.935 Y171.304 E9.6539
G1 X177.954 Y171.306 E9.65542
G1 X177.968 Y171.656 E9.68338
G1 X177.938 Y171.656 E9.68578
G1 X178.006 Y172.35 E9.74144
G1 X178.028 Y172.692 E9.7688
G1 X178.029 Y173.003 E9.79362
G1 X178.01 Y173.301 E9.81746
G1 X177.983 Y173.539 E9.83658
G1 X177.951 Y174.205 E9.8898
G1 X177.983 Y174.718 E9.93083
G1 X177.995 Y174.822 E9.93919
G1 X178.026 Y175.212 E9.97042
G1 X178.031 Y175.485 E9.99222
G1 X178.015 Y175.819 E10.01891
G1 X177.976 Y176.206 E10.04996
G1 X177.952 Y176.871 E10.10307
G1 X177.978 Y177.286 E10.13627
G1 X177.999 Y177.489 E10.15256
G1 X178.027 Y177.857 E10.18202
G1 X178.03 Y178.17 E10.207
G1 X178.016 Y178.434 E10.22811
G1 X178 Y178.563 E10.23848
G1 X177.964 Y179.228 E10.29164
G1 X177.986 Y179.654 E10.32569
G1 X178.023 Y180.064 E10.35856
G1 X178.031 Y180.36 E10.38219
G1 X178.015 Y180.761 E10.41423
G1 X178.001 Y180.947 E10.42912
G1 X177.953 Y181.397 E10.46524
G1 X177.923 Y182.066 E10.5187
G1 X177.935 Y182.216 E10.53071
G1 X177.919 Y182.216 E10.53199
G1 X177.994 Y182.88 E10.58533
G1 X178.026 Y183.274 E10.61688
G1 X178.031 Y183.535 E10.63772
G1 X178.018 Y183.831 E10.66137
G1 X178 Y183.983 E10.67359
G1 X177.965 Y184.648 E10.72674
G1 X177.987 Y185.065 E10.76008
G1 X178.023 Y185.463 E10.79198
G1 X178.031 Y185.748 E10.81474
G1 X178.017 Y186.126 E10.84493
G1 X178.005 Y186.29 E10.85806
G1 X177.954 Y186.794 E10.89849
G1 X177.927 Y187.461 E10.95178
G1 X177.978 Y188.072 E11.00072
G1 X178 Y188.276 E11.0171
G1 X178.027 Y188.636 E11.04592
G1 X178.03 Y188.949 E11.0709
G1 X178.015 Y189.227 E11.09313
G1 X177.917 Y190.065 E11.16048
G1 X177.936 Y190.067 E11.162
G1 X177.907 Y190.386 E11.18757
G1 X177.907 Y190.569 E11.20218
G1 X177.889 Y190.852 E11.22481
G1 X177.851 Y191.15 E11.24879
G1 X177.794 Y191.443 E11.27262
G1 X177.73 Y191.692 E11.29314
G1 X177.628 Y192 E11.31904
G1 X177.449 Y192.432 E11.35637
G1 X177.387 Y192.57 E11.36845
G1 X176.599 Y194.141 E11.50874
G1 X176.519 Y194.288 E11.5221
G1 X176.329 Y194.613 E11.55215
G1 X176.184 Y194.83 E11.57298
G1 X175.982 Y195.092 E11.59939
G1 X175.817 Y195.28 E11.61936
G1 X175.606 Y195.494 E11.64335
G1 X175.369 Y195.702 E11.66852
G1 X175.039 Y195.956 E11.70176
G1 X174.908 Y196.05 E11.71463
G1 X173.445 Y197.022 E11.85484
G1 X173.295 Y197.115 E11.86893
G1 X172.988 Y197.292 E11.89722
G1 X172.714 Y197.429 E11.92167
G1 X172.465 Y197.533 E11.94321
G1 X172.175 Y197.633 E11.9677
G1 X171.894 Y197.711 E11.99098
G1 X171.616 Y197.77 E12.01366
G1 X171.325 Y197.812 E12.03713
G1 X171.034 Y197.835 E12.06043
G1 X170.782 Y197.839 E12.08055
G1 X170.52 Y197.866 E12.10158
G1 X170.518 Y197.85 E12.10286
G1 X169.659 Y197.956 E12.17195
G1 X169.362 Y197.974 E12.1957
G1 X169.079 Y197.975 E12.21829
G1 X168.804 Y197.959 E12.24028
G1 X168.674 Y197.948 E12.2507
G1 X168.13 Y197.89 E12.29437
G1 X167.465 Y197.86 E12.3475
G1 X166.988 Y197.89 E12.38566
G1 X166.435 Y197.95 E12.43006
G1 X166.342 Y197.959 E12.43752
G1 X165.923 Y197.98 E12.471
G1 X165.82 Y197.983 E12.47923
G1 X162.912 Y197.983 E12.71136
G1 X162.783 Y197.979 E12.72166
G1 X162.372 Y197.953 E12.75453
G1 X161.687 Y197.955 E12.80921
G1 X161.373 Y197.977 E12.83434
G1 X161.192 Y197.983 E12.8488
G1 X160.482 Y197.983 E12.90547
G1 X160.294 Y197.977 E12.92049
G1 X160.197 Y197.971 E12.92824
G1 X159.547 Y197.971 E12.98013
G1 X159.426 Y197.978 E12.9898
G1 X159.281 Y197.983 E13.00139
G1 X157.92 Y197.983 E13.11003
G1 X157.732 Y197.977 E13.12504
G1 X157.635 Y197.971 E13.1328
G1 X156.985 Y197.971 E13.18469
G1 X156.864 Y197.978 E13.19436
G1 X156.719 Y197.983 E13.20594
G1 X155.19 Y197.983 E13.32799
G1 X155.009 Y197.977 E13.34245
G1 X154.909 Y197.971 E13.35045
G1 X154.255 Y197.971 E13.40265
G1 X154.134 Y197.978 E13.41233
G1 X153.991 Y197.983 E13.42375
G1 X152.626 Y197.983 E13.53271
G1 X152.445 Y197.977 E13.54716
G1 X152.345 Y197.971 E13.55516
G1 X151.691 Y197.971 E13.60737
G1 X151.57 Y197.978 E13.61704
G1 X151.427 Y197.983 E13.62846
G1 X149.964 Y197.983 E13.74525
G1 X149.836 Y197.979 E13.75547
G1 X149.425 Y197.953 E13.78834
G1 X148.74 Y197.955 E13.84302
G1 X148.426 Y197.977 E13.86815
G1 X148.245 Y197.983 E13.8826
G1 X144.529 Y197.983 E14.17923
G1 X144.405 Y197.979 E14.18913
G1 X144.026 Y197.955 E14.21945
G1 X143.381 Y197.954 E14.27094
G1 X142.98 Y197.978 E14.303
G1 X142.821 Y197.983 E14.3157
G1 X139.144 Y197.983 E14.60921
G1 X139.02 Y197.979 E14.61912
G1 X138.641 Y197.955 E14.64943
G1 X137.996 Y197.954 E14.70092
G1 X137.595 Y197.978 E14.73299
G1 X137.436 Y197.983 E14.74568
G1 X133.759 Y197.983 E15.0392
G1 X133.637 Y197.979 E15.04894
G1 X133.258 Y197.955 E15.07926
G1 X132.628 Y197.953 E15.12955
G1 X132.168 Y197.98 E15.16633
G1 X132.05 Y197.983 E15.17575
G1 X130.526 Y197.974 E15.2974
G1 X129.925 Y197.974 E15.34538
G1 X129.799 Y197.97 E15.35544
G1 X129.422 Y197.946 E15.3856
G1 X129.124 Y197.909 E15.40957
G1 X128.84 Y197.854 E15.43266
G1 X128.549 Y197.778 E15.45667
G1 X127.794 Y197.531 E15.52008
G1 X127.697 Y197.501 E15.52818
G1 X127.359 Y197.413 E15.55606
G1 X127.09 Y197.325 E15.57865
G1 X126.83 Y197.222 E15.60098
G1 X126.548 Y197.088 E15.6259
G1 X126.297 Y196.949 E15.6488
G1 X126.007 Y196.764 E15.67626
G1 X125.871 Y196.671 E15.68941
G1 X125.444 Y196.359 E15.73163
G1 X125.314 Y196.258 E15.74477
G1 X125.047 Y196.037 E15.77244
G1 X124.829 Y195.831 E15.79638
G1 X124.615 Y195.601 E15.82145
G1 X124.075 Y194.941 E15.88953
G1 X124.055 Y194.959 E15.89167
G1 X123.857 Y194.734 E15.9156
G1 X123.763 Y194.644 E15.92599
G1 X123.554 Y194.42 E15.95044
G1 X123.382 Y194.212 E15.97199
G1 X123.205 Y193.965 E15.99624
G1 X123.062 Y193.737 E16.01773
G1 X122.915 Y193.468 E16.0422
G1 X122.799 Y193.215 E16.06441
G1 X122.693 Y192.944 E16.08764
G1 X122.571 Y192.556 E16.12011
G1 X122.525 Y192.388 E16.13401
G1 X122.113 Y190.698 E16.27287
G1 X122.08 Y190.538 E16.28591
G1 X122.016 Y190.177 E16.31517
G1 X121.984 Y189.89 E16.33822
G1 X121.97 Y189.594 E16.36188
G1 X121.974 Y189.311 E16.38447
G1 X122.042 Y188.418 E16.45596
G1 X122.034 Y188.418 E16.4566
G1 X122.01 Y187.861 E16.5011
G1 X121.979 Y187.534 E16.52732
G1 X121.969 Y187.245 E16.55041
G1 X121.978 Y186.944 E16.57444
G1 X122 Y186.713 E16.59297
G1 X122.003 Y185.772 E16.66808
G1 X121.976 Y185.47 E16.69228
G1 X121.969 Y185.162 E16.71688
G1 X121.98 Y184.888 E16.73877
G1 X122.002 Y184.692 E16.75451
G1 X122.033 Y184.028 E16.80757
G1 X122.013 Y183.634 E16.83906
G1 X121.977 Y183.231 E16.87136
G1 X121.969 Y182.936 E16.89492
G1 X121.98 Y182.64 E16.91856
G1 X121.998 Y182.457 E16.93324
G1 X122.018 Y181.909 E16.97701
G1 X122.034 Y181.909 E16.97829
G1 X121.972 Y181.025 E17.04903
G1 X121.971 Y180.718 E17.07353
G1 X121.996 Y180.307 E17.1064
G1 X122.007 Y180.195 E17.11539
G1 X122.046 Y179.889 E17.14001
G1 X122.09 Y179.218 E17.19369
G1 X122.039 Y178.474 E17.25321
G1 X122.017 Y178.316 E17.26595
G1 X122.002 Y178.18 E17.27687
G1 X121.974 Y177.817 E17.30593
G1 X121.97 Y177.496 E17.33156
G1 X121.989 Y177.153 E17.35898
G1 X122.003 Y176.98 E17.37284
G1 X122.048 Y176.597 E17.40362
